src/lib/packages/icons/src/assets/filled/magicoon.svg

<svg width="24" height="24" viewBox="0 0 24 24" fill="none" xmlns="http://www.w3.org/2000/svg">
<path d="M12.02 21.0001C11.81 21.0001 11.62 20.8602 11.56 20.6602L10.82 18.0801C10.15 15.7101 8.29996 13.8701 5.92996 13.2001L3.33999 12.4602C3.08999 12.3902 2.93998 12.1302 3.00998 11.8802C3.04998 11.7202 3.17999 11.6002 3.33999 11.5502L5.92996 10.8101C8.29996 10.1401 10.15 8.30014 10.82 5.93014L11.56 3.35015C11.63 3.10015 11.89 2.95015 12.15 3.02015C12.31 3.07015 12.4299 3.19015 12.4799 3.35015L13.2199 5.93014C13.8899 8.30014 15.74 10.1401 18.11 10.8101L20.7 11.5502C20.95 11.6502 21.0699 11.9402 20.9699 12.1902C20.9199 12.3102 20.82 12.4102 20.7 12.4602L18.11 13.2001C15.74 13.8701 13.8899 15.7201 13.2199 18.0801L12.4799 20.6602C12.4199 20.8602 12.23 21.0001 12.02 21.0001ZM5.83999 20.9001L6.06997 20.1201C6.26997 19.4101 6.82995 18.8602 7.53995 18.6602L8.31997 18.4402C8.39997 18.4102 8.42999 18.3201 8.39999 18.2501C8.37999 18.2101 8.35997 18.1901 8.31997 18.1701L7.53995 17.9501C6.82995 17.7501 6.26997 17.2002 6.06997 16.4902L5.83999 15.7102C5.81999 15.6302 5.73994 15.5901 5.65994 15.6101C5.60994 15.6201 5.57996 15.6602 5.55996 15.7102L5.33999 16.4902C5.13999 17.2002 4.57996 17.7501 3.86996 17.9501L3.08999 18.1701C3.00999 18.1901 2.96996 18.2702 2.98996 18.3502C2.99996 18.4002 3.03999 18.4301 3.08999 18.4501L3.86996 18.6701C4.57996 18.8701 5.13999 19.4202 5.33999 20.1302L5.55996 20.9102C5.57996 20.9902 5.65996 21.0302 5.73996 21.0102C5.78996 21.0002 5.81999 20.9601 5.83999 20.9102V20.9001ZM19.3 6.53015L19.45 6.01014C19.58 5.54014 19.95 5.17014 20.43 5.04014L20.95 4.89015C21 4.87015 21.02 4.81014 21 4.76014C20.99 4.74014 20.97 4.72015 20.95 4.71015L20.43 4.56015C19.96 4.43015 19.59 4.06014 19.45 3.59014L19.3 3.07015C19.29 3.02015 19.23 2.99014 19.18 3.01014C19.15 3.01014 19.13 3.04015 19.12 3.07015L18.9699 3.59014C18.8399 4.06014 18.47 4.43015 17.99 4.56015L17.4699 4.71015C17.4199 4.72015 17.3899 4.78015 17.4099 4.83015C17.4099 4.86015 17.4399 4.88015 17.4699 4.89015L17.99 5.04014C18.46 5.17014 18.8299 5.54014 18.9699 6.01014L19.12 6.53015C19.13 6.58015 19.19 6.61014 19.24 6.59014C19.27 6.59014 19.29 6.56015 19.3 6.53015Z" fill="currentColor"/>
</svg>

<svg xmlns="http://www.w3.org/2000/svg" width="24" height="24" fill="none"><path fill="currentColor" d="M12.02 21c-.21 0-.4-.14-.46-.34l-.74-2.58a7.068 7.068 0 0 0-4.89-4.88l-2.59-.74a.473.473 0 0 1-.33-.58c.04-.16.17-.28.33-.33l2.59-.74a7.068 7.068 0 0 0 4.89-4.88l.74-2.58c.07-.25.33-.4.59-.33.16.05.28.17.33.33l.74 2.58a7.068 7.068 0 0 0 4.89 4.88l2.59.74c.25.1.37.39.27.64a.51.51 0 0 1-.27.27l-2.59.74a7.086 7.086 0 0 0-4.89 4.88l-.74 2.58c-.06.2-.25.34-.46.34Zm-6.18-.1.23-.78c.2-.71.76-1.26 1.47-1.46l.78-.22c.08-.03.11-.12.08-.19a.156.156 0 0 0-.08-.08l-.78-.22a2.12 2.12 0 0 1-1.47-1.46l-.23-.78c-.02-.08-.1-.12-.18-.1-.05.01-.08.05-.1.1l-.22.78c-.2.71-.76 1.26-1.47 1.46l-.78.22c-.08.02-.12.1-.1.18.01.05.05.08.1.1l.78.22c.71.2 1.27.75 1.47 1.46l.22.78c.02.08.1.12.18.1.05-.01.08-.05.1-.1v-.01ZM19.3 6.53l.15-.52c.13-.47.5-.84.98-.97l.52-.15c.05-.02.07-.08.05-.13a.12.12 0 0 0-.05-.05l-.52-.15c-.47-.13-.84-.5-.98-.97l-.15-.52c-.01-.05-.07-.08-.12-.06-.03 0-.05.03-.06.06l-.15.52c-.13.47-.5.84-.98.97l-.52.15c-.05.01-.08.07-.06.12 0 .03.03.05.06.06l.52.15c.47.13.84.5.98.97l.15.52c.01.05.07.08.12.06.03 0 .05-.03.06-.06Z"/></svg>
